X: 1
T: Cranking Out
M: 4/4
L: 1/8
R: reel
K: Dmix
D2 AD BDAD|(3FED AD BcGE|(3FED AD BDAB|ccAc EcGE|
D2 AD BDAD|(3FED AD BcGE|(3FED AD BDAB|ccGE DEGg|
fdAd FADg|fdAB cGEg|fdAd FADc|BGcG EDEg|
fdAd FADg|fdAB cGEg|fdAd FADc|BGcG EDEC`|
